X:1
T:Title
%%score 1 { 2 | 3 }
L:1/8
Q:1/4=105
M:4/4
K:Ab
V:1 treble nm="Grand Piano, Soprano"
V:2 bass nm="Choir Pad, He Redeemed Me"
V:3 bass 
V:1
 [CE]>[CE] [CE]2 [CA]2 [Ec]2 | [CE]>[CE] [DF]2 [FA]2 [Fd]2 | [DF]2 [DF][_C=D] [=CE][CA] [Ec]2 | %3
w: By~S.~C.~Hanson * * * *|||
 [CA]2 [EB]6 | [DE]2 [CE][_C=D] [=CE][CA] [Ec]2 | [CE]2 [DF][C=E] [DF][FA] [Fd]2 | %6
w: |||
 [DF]2 [CE][_C=D] [=CE][CA] [Ec]2 | [DB]2 [CA]6 | [CE]>[CE] [CE]4 [CA]2 | [CE]>[CE] [DF]4 [FB]2 | %10
w: ||||
 [FB]>[FB] [=DA]2 [DA]2 [DG]2 | [=DF]2 E6 | [DE]>[DE] [CE]4 [CA]2 | [CE]>[CE] [DF]4 [FB]2 | %14
w: ||||
 [DF]>[DF] [CE][_C=D] [=CE][CA] [Ec]2 | [DB]2 [CA]6- | [CA]2 z2 z4 |] %17
w: |||
V:2
 A,>A, A,2 A,2 A,2 | A,>A, A,2 A,2 A,2 | A,2 A,A, A,A, A,2 | A,2 G,6 | G,2 A,2 A,A, A,2 | %5
 A,2 A,2 A,A, A,2 | A,2 A,2 A,A, A,2 | G,2 A,6 | A,>A, A,2 A,2 A,2 | A,2 A,A, A,A, A,2 | %10
 A,>A, C2 C2 B,2 | A,2 G,6 | G,>G, A,2 A,2 A,2 | A,>A, A,2 A,A, A,2 | A,>A, A,2 A,A, A,2 | %15
 G,2 A,6- | A,2 z2 z4 |] %17
V:3
 A,,>A,, A,,2 A,,2 A,,2 | A,,>A,, D,2 D,2 D,2 | D,2 A,,A,, A,,A,, A,,2 | A,,2 E,6 | %4
 E,2 A,,2 A,,A,, A,,2 | A,,2 D,2 D,D, D,2 | D,2 E,2 E,E, E,2 | E,2 A,,6 | A,,>A,, A,,2 A,,2 A,,2 | %9
 A,,2 D,D, D,D, D,2 | D,>D, B,,2 B,,2 B,,2 | B,,2 E,6 | E,>E, A,,2 A,,2 A,,2 | %13
 A,,>A,, D,2 D,D, D,2 | D,>D, E,2 E,E, E,2 | E,2 A,,6- | A,,2 z2 z4 |] %17

